X: 1
T: Merry Harriers, The
M: 4/4
L: 1/8
R: reel
K: Ador
|:gfg|eA~A2 eAgA|eA~A2 BGBd|eA~A2 eg~g2|abge d:|
|:cBc|dg~g2 bg~g2|dggd BGBc|dggf gabg|abge d:|
